X: 505
P: Longways for as many as will
M: C|
L: 1/8
K: F
c2 |\
d3 c (de) (fd) | (cd) (cB) (Ac) (fc) | (de) (fd) (cd) (cA) | B2 G2 G2 B2 |\
(ag) |\
(fg) (af) (ga) (bg) | (ab) (ga) (fg) (ef) | (de) (fd) (ge) (ec) | G2 c4 B>A |\
(Bd) (fd) (Ac) (fc) | (Bd) (fd) (Ac) (fc) | (dc) (BA) (GA) (GF) | F6 |]

